SVG_Azure_Grouped/Storage/Managed Disk Ultra SSD.svg

<?xml version="1.0" encoding="UTF-8" standalone="no"?>
<!-- Generated by Microsoft Visio, SVG Export Managed Disk Ultra SSD.svg Page-1 -->

<svg
   xmlns:dc="http://purl.org/dc/elements/1.1/"
   xmlns:cc="http://creativecommons.org/ns#"
   xmlns:rdf="http://www.w3.org/1999/02/22-rdf-syntax-ns#"
   xmlns:svg="http://www.w3.org/2000/svg"
   xmlns="http://www.w3.org/2000/svg"
   xmlns:sodipodi="http://sodipodi.sourceforge.net/DTD/sodipodi-0.dtd"
   xmlns:inkscape="http://www.inkscape.org/namespaces/inkscape"
   width="0.78736037in"
   height="0.66927993in"
   viewBox="0 0 56.689945 48.188199"
   xml:space="preserve"
   class="st4"
   version="1.1"
   id="svg67"
   sodipodi:docname="Managed Disk Ultra SSD.svg"
   style="font-size:12px;overflow:visible;color-interpolation-filters:sRGB;fill:none;fill-rule:evenodd;stroke-linecap:square;stroke-miterlimit:3"
   inkscape:version="0.92.5 (2060ec1f9f, 2020-04-08)"><metadata
   id="metadata73"><rdf:RDF><cc:Work
       rdf:about=""><dc:format>image/svg+xml</dc:format><dc:type
         rdf:resource="http://purl.org/dc/dcmitype/StillImage" /></cc:Work></rdf:RDF></metadata><defs
   id="defs71" /><sodipodi:namedview
   pagecolor="#ffffff"
   bordercolor="#666666"
   borderopacity="1"
   objecttolerance="10"
   gridtolerance="10"
   guidetolerance="10"
   inkscape:pageopacity="0"
   inkscape:pageshadow="2"
   inkscape:window-width="640"
   inkscape:window-height="480"
   id="namedview69"
   showgrid="false"
   inkscape:zoom="2.0339329"
   inkscape:cx="37.795243"
   inkscape:cy="12.656653"
   inkscape:window-x="0"
   inkscape:window-y="0"
   inkscape:window-maximized="0"
   inkscape:current-layer="svg67" />
	<style
   type="text/css"
   id="style2">
	<![CDATA[
		.st1 {fill:#661db0;stroke:none;stroke-linecap:butt;stroke-width:0.749999}
		.st2 {fill:#945ccf;stroke:none;stroke-linecap:butt;stroke-width:0.749999}
		.st3 {fill:#ffffff;fill-opacity:0.25;stroke:none;stroke-linecap:butt;stroke-width:0.749999}
		.st4 {fill:none;fill-rule:evenodd;font-size:12px;overflow:visible;stroke-linecap:square;stroke-miterlimit:3}
	]]>
	</style>

	<g
   id="g65"
   transform="translate(-5.669324,-4.8161)">
		<title
   id="title4">Page-1</title>
		<g
   id="group20247-1"
   transform="translate(5.66929,-34.0157)">
			<title
   id="title6">Managed Disk Ultra SSD.20247</title>
			<g
   id="group20248-2">
				<title
   id="title8">Page-1</title>
				<g
   id="group20249-3">
					<title
   id="title10">Managed Disk Ultra SSD</title>
					<g
   id="shape20250-4">
						<title
   id="title12">Sheet.20250</title>
						<path
   d="M 56.69,76.76 C 56.69,82.43 44,87.02 28.35,87.02 12.69,87.02 0,82.43 0,76.76 v -5.54 h 56.69 z"
   class="st1"
   id="path14"
   inkscape:connector-curvature="0"
   style="fill:#661db0;stroke:none;stroke-width:0.74999899;stroke-linecap:butt" />
					</g>
					<g
   id="shape20251-6"
   transform="translate(0,-5.53254)">
						<title
   id="title17">Sheet.20251</title>
						<path
   d="M 56.69,76.76 C 56.69,82.43 44,87.02 28.35,87.02 12.69,87.02 0,82.43 0,76.76 0,71.09 12.69,66.49 28.35,66.49 c 15.65,0 28.34,4.6 28.34,10.27 z"
   class="st2"
   id="path19"
   inkscape:connector-curvature="0"
   style="fill:#945ccf;stroke:none;stroke-width:0.74999899;stroke-linecap:butt" />
					</g>
					<g
   id="shape20252-8"
   transform="translate(19.2573,-13.659)">
						<title
   id="title22">Sheet.20252</title>
						<path
   d="m 18.18,84.3 c 0,1.5 -4.07,2.72 -9.1,2.72 C 4.07,87.02 0,85.8 0,84.3 c 0,-1.52 4.07,-2.74 9.08,-2.74 5.03,0 9.1,1.22 9.1,2.74 z"
   class="st1"
   id="path24"
   inkscape:connector-curvature="0"
   style="fill:#661db0;stroke:none;stroke-width:0.74999899;stroke-linecap:butt" />
					</g>
					<g
   id="shape20253-10"
   transform="translate(30.1015,-18.2574)">
						<title
   id="title27">Sheet.20253</title>
						<path
   d="M 18.74,82.45 C 14.76,80.94 9.55,79.88 3.68,79.46 L 0,86.27 c 1.81,0.1 3.43,0.37 4.68,0.75 z"
   class="st3"
   id="path29"
   inkscape:connector-curvature="0"
   style="fill:#ffffff;fill-opacity:0.25;stroke:none;stroke-width:0.74999899;stroke-linecap:butt" />
					</g>
					<g
   id="shape20254-12"
   transform="translate(6.69199,-5.66746)">
						<title
   id="title32">Sheet.20254</title>
						<path
   d="m 0,83.57 c 4.08,1.75 9.75,2.99 16.2,3.45 l 4.3,-7.96 c -1.79,-0.07 -3.42,-0.29 -4.72,-0.62 z"
   class="st3"
   id="path34"
   inkscape:connector-curvature="0"
   style="fill:#ffffff;fill-opacity:0.25;stroke:none;stroke-width:0.74999899;stroke-linecap:butt" />
					</g>
					<g
   id="shape20255-14"
   transform="translate(0,-22.1256)">
						<title
   id="title37">Sheet.20255</title>
						<path
   d="M 56.69,76.76 C 56.69,82.43 44,87.02 28.35,87.02 12.69,87.02 0,82.42 0,76.76 v -5.54 h 56.69 z"
   class="st1"
   id="path39"
   inkscape:connector-curvature="0"
   style="fill:#661db0;stroke:none;stroke-width:0.74999899;stroke-linecap:butt" />
					</g>
					<g
   id="shape20256-16"
   transform="translate(0,-27.6582)">
						<title
   id="title42">Sheet.20256</title>
						<path
   d="M 56.69,76.76 C 56.69,82.43 44,87.02 28.35,87.02 12.69,87.02 0,82.42 0,76.76 0,71.09 12.69,66.49 28.35,66.49 c 15.65,0 28.34,4.6 28.34,10.27 z"
   class="st2"
   id="path44"
   inkscape:connector-curvature="0"
   style="fill:#945ccf;stroke:none;stroke-width:0.74999899;stroke-linecap:butt" />
					</g>
					<g
   id="shape20257-18"
   transform="translate(19.2573,-35.7846)">
						<title
   id="title47">Sheet.20257</title>
						<path
   d="m 18.18,84.3 c 0,1.5 -4.07,2.72 -9.1,2.72 C 4.07,87.02 0,85.8 0,84.3 c 0,-1.52 4.07,-2.74 9.08,-2.74 5.03,0 9.1,1.22 9.1,2.74 z"
   class="st1"
   id="path49"
   inkscape:connector-curvature="0"
   style="fill:#661db0;stroke:none;stroke-width:0.74999899;stroke-linecap:butt" />
					</g>
					<g
   id="shape20258-20"
   transform="translate(30.1015,-40.4397)">
						<title
   id="title52">Sheet.20258</title>
						<path
   d="M 18.74,82.45 C 14.76,80.94 9.55,79.88 3.68,79.46 L 0,86.27 c 1.81,0.1 3.43,0.37 4.68,0.75 z"
   class="st3"
   id="path54"
   inkscape:connector-curvature="0"
   style="fill:#ffffff;fill-opacity:0.25;stroke:none;stroke-width:0.74999899;stroke-linecap:butt" />
					</g>
					<g
   id="shape20259-22"
   transform="translate(6.69199,-27.8498)">
						<title
   id="title57">Sheet.20259</title>
						<path
   d="m 0,83.57 c 4.08,1.75 9.75,2.99 16.2,3.45 l 4.3,-7.96 c -1.79,-0.07 -3.42,-0.29 -4.72,-0.62 z"
   class="st3"
   id="path59"
   inkscape:connector-curvature="0"
   style="fill:#ffffff;fill-opacity:0.25;stroke:none;stroke-width:0.74999899;stroke-linecap:butt" />
					</g>
				</g>
			</g>
		</g>
	</g>
</svg>

<?xml version="1.0" encoding="UTF-8" standalone="no"?>
<!DOCTYPE svg PUBLIC "-//W3C//DTD SVG 1.1//EN" "http://www.w3.org/Graphics/SVG/1.1/DTD/svg11.dtd">
<!-- Generated by Microsoft Visio, SVG Export Managed Disk Ultra SSD.svg Page-1 -->
<svg xmlns="http://www.w3.org/2000/svg" xmlns:xlink="http://www.w3.org/1999/xlink" xmlns:ev="http://www.w3.org/2001/xml-events"
		width="0.944882in" height="1.20866in" viewBox="0 0 68.0315 87.0236" xml:space="preserve" color-interpolation-filters="sRGB"
		class="st4">
	<style type="text/css">
	<![CDATA[
		.st1 {fill:#661db0;stroke:none;stroke-linecap:butt;stroke-width:0.749999}
		.st2 {fill:#945ccf;stroke:none;stroke-linecap:butt;stroke-width:0.749999}
		.st3 {fill:#ffffff;fill-opacity:0.25;stroke:none;stroke-linecap:butt;stroke-width:0.749999}
		.st4 {fill:none;fill-rule:evenodd;font-size:12px;overflow:visible;stroke-linecap:square;stroke-miterlimit:3}
	]]>
	</style>

	<g>
		<title>Page-1</title>
		<g id="group19792-1" transform="translate(5.66929,-34.0157)">
			<title>Managed Disk Ultra SSD.19792</title>
			<g id="group19793-2">
				<title>Page-1</title>
				<g id="group19794-3">
					<title>Managed Disk Ultra SSD</title>
					<g id="shape19795-4">
						<title>Sheet.19795</title>
						<path d="M56.69 76.76 C56.69 82.43 44 87.02 28.35 87.02 C12.69 87.02 0 82.43 0 76.76 L0 71.22 L56.69 71.22
									 L56.69 76.76 Z" class="st1"/>
					</g>
					<g id="shape19796-6" transform="translate(0,-5.53254)">
						<title>Sheet.19796</title>
						<path d="M56.69 76.76 C56.69 82.43 44 87.02 28.35 87.02 C12.69 87.02 0 82.43 0 76.76 C0 71.09 12.69 66.49
									 28.35 66.49 C44 66.49 56.69 71.09 56.69 76.76 Z" class="st2"/>
					</g>
					<g id="shape19797-8" transform="translate(19.2573,-13.659)">
						<title>Sheet.19797</title>
						<path d="M18.18 84.3 C18.18 85.8 14.11 87.02 9.08 87.02 C4.07 87.02 0 85.8 0 84.3 C0 82.78 4.07 81.56 9.08
									 81.56 C14.11 81.56 18.18 82.78 18.18 84.3 Z" class="st1"/>
					</g>
					<g id="shape19798-10" transform="translate(30.1015,-18.2574)">
						<title>Sheet.19798</title>
						<path d="M18.74 82.45 C14.76 80.94 9.55 79.88 3.68 79.46 L0 86.27 C1.81 86.37 3.43 86.64 4.68 87.02 L18.74
									 82.45 Z" class="st3"/>
					</g>
					<g id="shape19799-12" transform="translate(6.69199,-5.66746)">
						<title>Sheet.19799</title>
						<path d="M0 83.57 C4.08 85.32 9.75 86.56 16.2 87.02 L20.5 79.06 C18.71 78.99 17.08 78.77 15.78 78.44 L0 83.57
									 Z" class="st3"/>
					</g>
					<g id="shape19800-14" transform="translate(0,-22.1256)">
						<title>Sheet.19800</title>
						<path d="M56.69 76.76 C56.69 82.43 44 87.02 28.35 87.02 C12.69 87.02 0 82.42 0 76.76 L0 71.22 L56.69 71.22
									 L56.69 76.76 Z" class="st1"/>
					</g>
					<g id="shape19801-16" transform="translate(0,-27.6582)">
						<title>Sheet.19801</title>
						<path d="M56.69 76.76 C56.69 82.43 44 87.02 28.35 87.02 C12.69 87.02 0 82.42 0 76.76 C0 71.09 12.69 66.49
									 28.35 66.49 C44 66.49 56.69 71.09 56.69 76.76 Z" class="st2"/>
					</g>
					<g id="shape19802-18" transform="translate(19.2573,-35.7846)">
						<title>Sheet.19802</title>
						<path d="M18.18 84.3 C18.18 85.8 14.11 87.02 9.08 87.02 C4.07 87.02 0 85.8 0 84.3 C0 82.78 4.07 81.56 9.08
									 81.56 C14.11 81.56 18.18 82.78 18.18 84.3 Z" class="st1"/>
					</g>
					<g id="shape19803-20" transform="translate(30.1015,-40.4397)">
						<title>Sheet.19803</title>
						<path d="M18.74 82.45 C14.76 80.94 9.55 79.88 3.68 79.46 L0 86.27 C1.81 86.37 3.43 86.64 4.68 87.02 L18.74
									 82.45 Z" class="st3"/>
					</g>
					<g id="shape19804-22" transform="translate(6.69199,-27.8498)">
						<title>Sheet.19804</title>
						<path d="M0 83.57 C4.08 85.32 9.75 86.56 16.2 87.02 L20.5 79.06 C18.71 78.99 17.08 78.77 15.78 78.44 L0 83.57
									 Z" class="st3"/>
					</g>
				</g>
			</g>
		</g>
	</g>
</svg>
